assets/img/challaris_tech_logo.svg

<svg width="161" height="19" viewBox="0 0 161 19" version="1.1" xmlns="http://www.w3.org/2000/svg" xmlns:xlink="http://www.w3.org/1999/xlink">
<title>challaris_tech_logo</title>
<desc>Created using Figma</desc>
<g id="Canvas" transform="translate(-2496 199)">
<g id="challaris_tech_logo">
<use xlink:href="#path0_fill" transform="translate(2496 -205)" fill="#4D4D4D"/>
</g>
</g>
<defs>
<path id="path0_fill" d="M 7.176 21C 5.448 21 4.296 19.752 4.296 17.976C 4.296 16.224 5.448 14.952 7.176 14.952C 8.4 14.952 9.384 15.624 9.72 17.088L 13.32 16.224C 12.648 13.392 10.104 11.592 7.176 11.592C 3.576 11.592 0.6 14.184 0.6 17.976C 0.6 21.792 3.576 24.36 7.176 24.36C 10.176 24.36 12.72 22.512 13.32 19.656L 9.792 18.888C 9.384 20.352 8.4 21 7.176 21ZM 22.8739 11.592C 21.3379 11.592 20.0899 12.144 19.1539 13.104L 19.1539 6.72L 15.3139 6.72L 15.3139 24L 19.1539 24L 19.1539 18.408C 19.1539 16.08 20.1379 15.048 21.6259 15.048C 22.8739 15.048 23.7139 16.008 23.7139 17.424L 23.7139 24L 27.5299 24L 27.5299 16.608C 27.5299 13.584 25.6579 11.592 22.8739 11.592ZM 42.8453 11.952L 39.0053 11.952L 39.0053 12.912C 38.0693 12.072 36.8213 11.592 35.2613 11.592C 32.0693 11.592 29.3813 14.184 29.3813 17.976C 29.3813 21.792 32.0693 24.36 35.2613 24.36C 36.8213 24.36 38.0693 23.88 39.0053 23.04L 39.0053 24L 42.8453 24L 42.8453 11.952ZM 36.0532 21.096C 34.3732 21.096 33.1493 19.848 33.1493 17.976C 33.1493 16.128 34.3732 14.856 36.0532 14.856C 37.6133 14.856 39.0053 16.128 39.0053 17.976C 39.0053 19.848 37.6133 21.096 36.0532 21.096ZM 49.4586 24L 49.4586 6.72L 45.6186 6.72L 45.6186 24L 49.4586 24ZM 56.0914 24L 56.0914 6.72L 52.2514 6.72L 52.2514 24L 56.0914 24ZM 71.5562 11.952L 67.7162 11.952L 67.7162 12.912C 66.7802 12.072 65.5322 11.592 63.9722 11.592C 60.7802 11.592 58.0922 14.184 58.0922 17.976C 58.0922 21.792 60.7802 24.36 63.9722 24.36C 65.5322 24.36 66.7802 23.88 67.7162 23.04L 67.7162 24L 71.5562 24L 71.5562 11.952ZM 64.7642 21.096C 63.0842 21.096 61.8602 19.848 61.8602 17.976C 61.8602 16.128 63.0842 14.856 64.7642 14.856C 66.3242 14.856 67.7162 16.128 67.7162 17.976C 67.7162 19.848 66.3242 21.096 64.7642 21.096ZM 82.3215 11.784C 80.3535 11.784 79.0335 12.816 78.1695 14.256L 78.1695 11.952L 74.3295 11.952L 74.3295 24L 78.1695 24L 78.1695 20.232C 78.1695 17.112 79.6335 15.72 82.3215 15.72L 83.0175 15.72L 83.1855 11.88C 82.8975 11.808 82.6575 11.784 82.3215 11.784ZM 86.9181 6.216C 85.6221 6.216 84.7101 7.224 84.7101 8.4C 84.7101 9.624 85.6221 10.536 86.9181 10.536C 88.2141 10.536 89.1501 9.624 89.1501 8.4C 89.1501 7.224 88.2141 6.216 86.9181 6.216ZM 88.8381 24L 88.8381 11.952L 84.9981 11.952L 84.9981 24L 88.8381 24ZM 90.9979 20.856C 91.4059 23.328 93.8299 24.36 96.6619 24.36C 99.8299 24.36 102.134 22.968 102.134 20.304C 102.134 18.528 101.078 17.16 98.7979 16.68L 95.9659 16.104C 95.1979 15.936 95.0539 15.6 95.0539 15.264C 95.0539 14.832 95.3899 14.328 96.4219 14.328C 97.5979 14.328 98.3179 15 98.4379 15.744L 101.942 15.048C 101.462 12.96 99.4699 11.592 96.4699 11.592C 93.4219 11.592 91.2859 13.2 91.2859 15.672C 91.2859 17.568 92.5579 18.768 94.7899 19.176L 97.2379 19.656C 98.1259 19.824 98.4379 20.136 98.4379 20.544C 98.4379 21.072 97.8859 21.504 96.8779 21.504C 95.8459 21.504 94.9099 21.12 94.7419 20.088L 90.9979 20.856ZM 105.725 19.8C 104.453 19.8 103.541 20.808 103.541 21.96C 103.541 23.184 104.453 24.12 105.725 24.12C 106.997 24.12 107.933 23.184 107.933 21.96C 107.933 20.808 106.997 19.8 105.725 19.8ZM 118.112 20.448C 117.608 20.736 116.888 20.928 116.36 20.928C 115.352 20.928 114.752 20.424 114.752 19.176L 114.752 15L 118.304 15L 118.304 11.952L 114.752 11.952L 114.752 8.4L 110.912 8.4L 110.912 11.952L 108.728 11.952L 108.728 15L 110.912 15L 110.912 19.56C 110.912 22.728 112.712 24.36 115.712 24.36C 117.08 24.36 118.064 23.976 119 23.472L 118.112 20.448ZM 132.028 17.976C 131.956 14.04 129.22 11.592 125.812 11.592C 122.308 11.592 119.428 14.184 119.428 17.976C 119.428 21.792 122.308 24.36 125.788 24.36C 128.548 24.36 130.732 23.136 131.764 20.592L 128.356 19.896C 127.708 21.072 126.676 21.288 125.788 21.288C 124.492 21.288 123.508 20.4 123.196 18.96L 132.028 18.96L 132.028 17.976ZM 125.812 14.712C 126.916 14.712 127.876 15.312 128.236 16.608L 123.268 16.608C 123.628 15.384 124.732 14.712 125.812 14.712ZM 139.809 21C 138.081 21 136.929 19.752 136.929 17.976C 136.929 16.224 138.081 14.952 139.809 14.952C 141.033 14.952 142.017 15.624 142.353 17.088L 145.953 16.224C 145.281 13.392 142.737 11.592 139.809 11.592C 136.209 11.592 133.233 14.184 133.233 17.976C 133.233 21.792 136.209 24.36 139.809 24.36C 142.809 24.36 145.353 22.512 145.953 19.656L 142.425 18.888C 142.017 20.352 141.033 21 139.809 21ZM 155.507 11.592C 153.971 11.592 152.723 12.144 151.787 13.104L 151.787 6.72L 147.947 6.72L 147.947 24L 151.787 24L 151.787 18.408C 151.787 16.08 152.771 15.048 154.259 15.048C 155.507 15.048 156.347 16.008 156.347 17.424L 156.347 24L 160.163 24L 160.163 16.608C 160.163 13.584 158.291 11.592 155.507 11.592Z"/>
</defs>
</svg>

<svg width="161" height="19" xmlns="http://www.w3.org/2000/svg" xmlns:xlink="http://www.w3.org/1999/xlink"><use xlink:href="#path0_fill" transform="translate(0 -6)" fill="#4D4D4D"/><defs><path id="path0_fill" d="M7.176 21c-1.728 0-2.88-1.248-2.88-3.024 0-1.752 1.152-3.024 2.88-3.024 1.224 0 2.208.672 2.544 2.136l3.6-.864c-.672-2.832-3.216-4.632-6.144-4.632-3.6 0-6.576 2.592-6.576 6.384 0 3.816 2.976 6.384 6.576 6.384 3 0 5.544-1.848 6.144-4.704l-3.528-.768C9.384 20.352 8.4 21 7.176 21zm15.698-9.408c-1.536 0-2.784.552-3.72 1.512V6.72h-3.84V24h3.84v-5.592c0-2.328.984-3.36 2.472-3.36 1.248 0 2.088.96 2.088 2.376V24h3.816v-7.392c0-3.024-1.872-5.016-4.656-5.016zm19.971.36h-3.84v.96c-.936-.84-2.184-1.32-3.744-1.32-3.192 0-5.88 2.592-5.88 6.384 0 3.816 2.688 6.384 5.88 6.384 1.56 0 2.808-.48 3.744-1.32V24h3.84V11.952zm-6.792 9.144c-1.68 0-2.904-1.248-2.904-3.12 0-1.848 1.224-3.12 2.904-3.12 1.56 0 2.952 1.272 2.952 3.12 0 1.872-1.392 3.12-2.952 3.12zM49.46 24V6.72h-3.84V24h3.84zm6.632 0V6.72h-3.84V24h3.84zm15.465-12.048h-3.84v.96c-.936-.84-2.184-1.32-3.744-1.32-3.192 0-5.88 2.592-5.88 6.384 0 3.816 2.688 6.384 5.88 6.384 1.56 0 2.808-.48 3.744-1.32V24h3.84V11.952zm-6.792 9.144c-1.68 0-2.904-1.248-2.904-3.12 0-1.848 1.224-3.12 2.904-3.12 1.56 0 2.952 1.272 2.952 3.12 0 1.872-1.392 3.12-2.952 3.12zm17.558-9.312c-1.969 0-3.288 1.032-4.153 2.472v-2.304h-3.84V24h3.84v-3.768c0-3.12 1.465-4.512 4.153-4.512h.695l.169-3.84a3.288 3.288 0 0 0-.865-.096zm4.596-5.568A2.167 2.167 0 0 0 84.71 8.4c0 1.224.912 2.136 2.208 2.136 1.296 0 2.232-.912 2.232-2.136 0-1.176-.936-2.184-2.232-2.184zM88.838 24V11.952h-3.84V24h3.84zm2.16-3.144c.408 2.472 2.832 3.504 5.664 3.504 3.168 0 5.472-1.392 5.472-4.056 0-1.776-1.056-3.144-3.336-3.624l-2.832-.576c-.768-.168-.912-.504-.912-.84 0-.432.336-.936 1.368-.936 1.176 0 1.896.672 2.016 1.416l3.504-.696c-.48-2.088-2.472-3.456-5.472-3.456-3.048 0-5.184 1.608-5.184 4.08 0 1.896 1.272 3.096 3.504 3.504l2.448.48c.888.168 1.2.48 1.2.888 0 .528-.552.96-1.56.96-1.032 0-1.968-.384-2.136-1.416l-3.744.768zm14.727-1.056a2.156 2.156 0 0 0-2.184 2.16c0 1.224.912 2.16 2.184 2.16 1.272 0 2.208-.936 2.208-2.16 0-1.152-.936-2.16-2.208-2.16zm12.387.648c-.504.288-1.224.48-1.752.48-1.008 0-1.608-.504-1.608-1.752V15h3.552v-3.048h-3.552V8.4h-3.84v3.552h-2.184V15h2.184v4.56c0 3.168 1.8 4.8 4.8 4.8 1.368 0 2.352-.384 3.288-.888l-.888-3.024zm13.916-2.472c-.072-3.936-2.808-6.384-6.216-6.384-3.504 0-6.384 2.592-6.384 6.384 0 3.816 2.88 6.384 6.36 6.384 2.76 0 4.944-1.224 5.976-3.768l-3.408-.696c-.648 1.176-1.68 1.392-2.568 1.392-1.296 0-2.28-.888-2.592-2.328h8.832v-.984zm-6.216-3.264c1.104 0 2.064.6 2.424 1.896h-4.968c.36-1.224 1.464-1.896 2.544-1.896zM139.809 21c-1.728 0-2.88-1.248-2.88-3.024 0-1.752 1.152-3.024 2.88-3.024 1.224 0 2.208.672 2.544 2.136l3.6-.864c-.672-2.832-3.216-4.632-6.144-4.632-3.6 0-6.576 2.592-6.576 6.384 0 3.816 2.976 6.384 6.576 6.384 3 0 5.544-1.848 6.144-4.704l-3.528-.768c-.408 1.464-1.392 2.112-2.616 2.112zm15.698-9.408c-1.536 0-2.784.552-3.72 1.512V6.72h-3.84V24h3.84v-5.592c0-2.328.984-3.36 2.472-3.36 1.248 0 2.088.96 2.088 2.376V24h3.816v-7.392c0-3.024-1.872-5.016-4.656-5.016z"/></defs></svg>
